packages/web-icons/svgs/arrow_6_right.svg

<svg viewBox="0 0 48 48" xmlns="http://www.w3.org/2000/svg" class="ridi_icon"><path d="M0 24c0 13.3 10.7 24 24 24s24-10.7 24-24S37.3 0 24 0 0 10.7 0 24zm23.4-10.4l7.7 7.7c.2.1.3.2.5.4.8.8 1 1.9.7 2.8-.1.5-.4.9-.7 1.2l-.3.3-7.8 7.8c-1.1 1.1-2.9 1.1-4 0s-1.1-2.9 0-4l6.1-6.1-6.2-6.2c-1.1-1.1-1.1-2.9 0-4 1.1-1 2.9-1 4 .1z"/></svg>

<?xml version="1.0" encoding="UTF-8"?>
<svg width="48px" height="48px" viewBox="0 0 48 48" version="1.1" xmlns="http://www.w3.org/2000/svg">
  <!-- Generator: Sketch 41.2 (35397) - http://www.bohemiancoding.com/sketch -->
  <title>arrow_6_right</title>
  <desc>Created with Sketch.</desc>
  <defs></defs>
  <g id="Page-1" stroke="none" stroke-width="1" fill="none" fill-rule="evenodd">
    <g id="arrow_6_right" fill="#000000">
      <g id="레이어_1">
        <path d="M0,24 C0,37.3 10.7,48 24,48 C37.3,48 48,37.3 48,24 C48,10.7 37.3,0 24,0 C10.7,0 0,10.7 0,24 Z M23.4,13.6 L31.1,21.3 C31.3,21.4 31.4,21.5 31.6,21.7 C32.4,22.5 32.6,23.6 32.3,24.5 C32.2,25 31.9,25.4 31.6,25.7 C31.5,25.8 31.4,25.9 31.3,26 L23.5,33.8 C22.4,34.9 20.6,34.9 19.5,33.8 C18.4,32.7 18.4,30.9 19.5,29.8 L25.6,23.7 L19.4,17.5 C18.3,16.4 18.3,14.6 19.4,13.5 C20.5,12.5 22.3,12.5 23.4,13.6 L23.4,13.6 Z" id="Shape"></path>
      </g>
    </g>
  </g>
</svg>
